src/images/touch.svg

<svg width="32" height="32" viewBox="0 0 32 32" fill="none" xmlns="http://www.w3.org/2000/svg">
<path d="M21.9546 12.4846C22.2518 12.3879 22.5485 12.353 22.8448 12.3798C23.1411 12.4066 23.4172 12.4851 23.6732 12.6154C23.9292 12.7457 24.1553 12.9227 24.3513 13.1465C24.5474 13.3702 24.6938 13.6307 24.7905 13.9278L26.1832 18.2069C26.4709 19.091 26.5745 19.9774 26.4941 20.8662C26.4137 21.7551 26.1743 22.5847 25.776 23.3552C25.3777 24.1257 24.8467 24.8038 24.1828 25.3895C23.519 25.9753 22.7426 26.417 21.8536 26.7145C20.7838 27.0627 19.7218 27.1824 18.6676 27.0736C17.6135 26.9648 16.5854 26.6586 15.5835 26.1549L8.61194 22.607C8.33623 22.4667 8.09793 22.2772 7.89704 22.0386C7.69615 21.8 7.54855 21.5358 7.45426 21.2461C7.35271 20.9341 7.31784 20.625 7.34967 20.3189C7.38149 20.0128 7.46384 19.7231 7.59672 19.4498C7.7296 19.1765 7.91284 18.9443 8.14644 18.7533C8.38003 18.5622 8.65041 18.4085 8.95759 18.2921C9.56677 18.0938 10.1618 18.1425 10.7428 18.4382L12.3196 19.2313L11.101 15.4871C10.595 15.4218 10.1166 15.2899 9.66592 15.0915C9.21521 14.8931 8.80321 14.637 8.42991 14.323C8.05661 14.0091 7.72564 13.6485 7.437 13.2413C7.14836 12.8341 6.92918 12.3878 6.77945 11.9025C6.55459 11.2116 6.47425 10.523 6.53842 9.8366C6.60259 9.15023 6.7863 8.503 7.08956 7.89492C7.39283 7.28684 7.80423 6.75858 8.32377 6.31016C8.8433 5.86173 9.45103 5.52016 10.1469 5.28546C10.8378 5.0606 11.5265 4.98026 12.2128 5.04443C12.8992 5.1086 13.5464 5.29231 14.1545 5.59557C14.7626 5.89884 15.2908 6.31024 15.7393 6.82977C16.1877 7.34931 16.5293 7.95703 16.764 8.65294C16.9888 9.34383 17.0666 10.0497 16.9972 10.7707C16.9279 11.4916 16.718 12.172 16.3675 12.8118C16.6493 12.7941 16.9196 12.8293 17.1784 12.9177C17.4372 13.006 17.682 13.1399 17.913 13.3194C18.1868 13.0249 18.5058 12.8184 18.8698 12.6999C19.2413 12.579 19.6145 12.552 19.9896 12.6189C20.3646 12.6858 20.7007 12.8476 20.9978 13.1041C21.2717 12.8096 21.5906 12.6031 21.9546 12.4846ZM8.20581 11.4383C8.38715 11.9954 8.68631 12.4855 9.10331 12.9085C9.5203 13.3314 10.0061 13.6375 10.5606 13.8268L9.63217 10.974C9.53545 10.6769 9.5005 10.3802 9.52731 10.0839C9.55412 9.78761 9.63267 9.51146 9.76296 9.25544C9.89325 8.99943 10.0703 8.77339 10.294 8.57733C10.5178 8.38127 10.7782 8.23489 11.0754 8.13818C11.3725 8.04146 11.6692 8.00651 11.9655 8.03332C12.2618 8.06013 12.538 8.13868 12.794 8.26897C13.05 8.39926 13.276 8.57628 13.4721 8.80003C13.6681 9.02377 13.8145 9.28422 13.9112 9.58138L14.8397 12.4341C15.1766 11.9547 15.3892 11.4214 15.4773 10.834C15.5655 10.2466 15.5189 9.67433 15.3376 9.11716C15.178 8.62685 14.9353 8.19648 14.6093 7.82604C14.2833 7.45561 13.9049 7.16386 13.4741 6.9508C13.0433 6.73774 12.581 6.60475 12.0872 6.55183C11.5935 6.49891 11.1015 6.55224 10.6112 6.71182C10.1208 6.87139 9.69047 7.11416 9.32003 7.44012C8.9496 7.76608 8.65414 8.14568 8.43365 8.57894C8.21316 9.0122 8.08017 9.47449 8.03468 9.96581C7.98919 10.4571 8.04623 10.948 8.20581 11.4383ZM23.3641 14.3921C23.3013 14.1989 23.1763 14.0547 22.9892 13.9595C22.8021 13.8643 22.612 13.8481 22.4189 13.911C22.1663 13.9932 22.0147 14.1206 21.964 14.2932C21.9134 14.4658 21.9108 14.6597 21.9562 14.8749C22.0016 15.0902 22.0728 15.3217 22.1699 15.5695C22.267 15.8172 22.3407 16.0438 22.3911 16.2492C22.4415 16.4546 22.4401 16.6523 22.3869 16.8421C22.3337 17.032 22.1784 17.1606 21.9209 17.2279C21.6461 17.3174 21.4325 17.2924 21.2804 17.153C21.1282 17.0135 20.9962 16.81 20.8845 16.5424C20.7727 16.2748 20.687 15.9863 20.6275 15.6771C20.5679 15.3679 20.4823 15.0794 20.3705 14.8118C20.2588 14.5442 20.1317 14.3432 19.9894 14.2087C19.847 14.0743 19.6286 14.0468 19.334 14.1263C19.0814 14.2085 18.9298 14.3359 18.8792 14.5084C18.8286 14.681 18.8259 14.8749 18.8714 15.0902C18.9168 15.3055 18.988 15.537 19.0851 15.7847C19.1821 16.0325 19.2559 16.2591 19.3063 16.4645C19.3567 16.6699 19.3553 16.8675 19.3021 17.0574C19.2489 17.2472 19.0935 17.3759 18.8361 17.4432C18.5612 17.5327 18.3477 17.5077 18.1955 17.3682C18.0433 17.2288 17.9114 17.0253 17.7996 16.7577C17.6879 16.49 17.6022 16.2016 17.5427 15.8924C17.4831 15.5831 17.3974 15.2947 17.2857 15.0271C17.1739 14.7594 17.0469 14.5584 16.9046 14.424C16.7622 14.2896 16.5438 14.2621 16.2492 14.3415C15.9966 14.4237 15.845 14.5511 15.7944 14.7237C15.7437 14.8963 15.7411 15.0902 15.7865 15.3055C15.8319 15.5207 15.9032 15.7522 16.0002 16C16.0973 16.2477 16.171 16.4743 16.2215 16.6797C16.2719 16.8852 16.2705 17.0828 16.2173 17.2727C16.164 17.4625 16.0087 17.5911 15.7513 17.6585C15.5581 17.7213 15.368 17.7052 15.1809 17.6099C14.9938 17.5147 14.8689 17.3705 14.806 17.1774L12.4849 10.0456C12.422 9.85245 12.297 9.70827 12.11 9.61306C11.9229 9.51785 11.7327 9.50167 11.5396 9.56453C11.3464 9.6274 11.2023 9.75237 11.107 9.93946C11.0118 10.1266 10.9957 10.3167 11.0585 10.5098L13.9128 19.2797C13.9684 19.4506 13.9894 19.6162 13.9759 19.7767C13.9624 19.9372 13.9193 20.095 13.8466 20.2502C13.7738 20.4053 13.6716 20.533 13.54 20.6334C13.4083 20.7338 13.2632 20.818 13.1046 20.886C12.9411 20.9392 12.7755 20.9603 12.6075 20.9492C12.4396 20.9381 12.2732 20.8937 12.1082 20.8159L10.0551 19.7711C9.84837 19.6659 9.63726 19.6483 9.42182 19.7184C9.20638 19.7886 9.04604 19.927 8.94081 20.1338C8.83557 20.3406 8.81551 20.5566 8.88061 20.7819C8.95073 20.9973 9.08918 21.1577 9.29596 21.2629L16.2711 24.8219C17.0982 25.2429 17.9364 25.4959 18.7857 25.581C19.635 25.6661 20.5029 25.5685 21.3893 25.2882C22.0802 25.0633 22.6842 24.723 23.2013 24.2671C23.7185 23.8112 24.1299 23.283 24.4355 22.6823C24.7412 22.0817 24.9262 21.4382 24.9903 20.7518C25.0545 20.0654 24.9767 19.3719 24.7568 18.6711L23.3641 14.3921Z" fill="black"/>
</svg>

<svg xmlns="http://www.w3.org/2000/svg" width="32" height="32" fill="none"><path fill="#000" d="M21.955 12.485a2.257 2.257 0 0 1 1.719.13 2.256 2.256 0 0 1 1.117 1.313l1.392 4.279a6.676 6.676 0 0 1-.407 5.148 6.95 6.95 0 0 1-1.593 2.035 6.68 6.68 0 0 1-2.33 1.325 7.657 7.657 0 0 1-3.185.359 8.847 8.847 0 0 1-3.084-.92l-6.972-3.547a2.35 2.35 0 0 1-1.158-1.36 2.225 2.225 0 0 1-.104-.928c.031-.306.114-.596.247-.87.133-.273.316-.505.55-.696.233-.19.503-.345.81-.46a2.255 2.255 0 0 1 1.786.145l1.577.793-1.219-3.744a5.191 5.191 0 0 1-1.435-.396 5.104 5.104 0 0 1-1.236-.768 5.751 5.751 0 0 1-.993-1.082 4.69 4.69 0 0 1-.658-1.338 5.085 5.085 0 0 1-.24-2.066 5.449 5.449 0 0 1 .55-1.942A5.055 5.055 0 0 1 8.325 6.31a5.395 5.395 0 0 1 1.823-1.025 5.085 5.085 0 0 1 2.066-.24 5.45 5.45 0 0 1 1.942.55 5.056 5.056 0 0 1 1.584 1.235c.449.52.79 1.127 1.025 1.823a5.252 5.252 0 0 1-.396 4.159 2.08 2.08 0 0 1 .81.106c.26.088.504.222.735.401a2.275 2.275 0 0 1 2.077-.7c.375.067.71.229 1.008.485.274-.294.593-.5.957-.62Zm-13.75-1.047a3.7 3.7 0 0 0 .898 1.47 3.7 3.7 0 0 0 1.458.919l-.929-2.853a2.257 2.257 0 0 1 .13-1.719 2.258 2.258 0 0 1 3.032-.986 2.258 2.258 0 0 1 1.117 1.312l.929 2.853c.337-.48.55-1.013.637-1.6a3.7 3.7 0 0 0-.14-1.717 3.666 3.666 0 0 0-1.864-2.166 4.084 4.084 0 0 0-1.386-.4c-.493-.052-.986.001-1.476.16-.49.16-.92.403-1.291.73a3.803 3.803 0 0 0-1.285 2.525c-.046.491.011.982.17 1.472Zm15.16 2.954a.72.72 0 0 0-.376-.432.72.72 0 0 0-.57-.049c-.253.082-.404.21-.455.382-.05.173-.053.367-.008.582.046.215.117.447.214.694.097.248.17.475.221.68.05.206.05.403-.004.593-.053.19-.209.319-.466.386-.275.09-.488.064-.64-.075-.153-.14-.285-.343-.396-.61a4.392 4.392 0 0 1-.258-.866 4.399 4.399 0 0 0-.256-.865c-.112-.268-.24-.469-.382-.603-.142-.135-.36-.162-.655-.083-.253.083-.404.21-.455.382-.05.173-.053.367-.008.582.046.216.117.447.214.695.097.247.17.474.221.68.05.205.05.402-.004.592-.053.19-.209.319-.466.386-.275.09-.488.065-.64-.075-.153-.14-.285-.343-.396-.61a4.4 4.4 0 0 1-.257-.866 4.403 4.403 0 0 0-.257-.865c-.112-.268-.24-.469-.381-.603-.143-.134-.361-.162-.656-.082-.252.082-.404.21-.455.382-.05.172-.053.366-.008.582.046.215.117.446.214.694.097.248.171.474.221.68.05.205.05.403-.004.593-.053.19-.208.318-.466.386a.72.72 0 0 1-.57-.05.72.72 0 0 1-.375-.432l-2.321-7.131a.721.721 0 0 0-.375-.433.72.72 0 0 0-.57-.048.721.721 0 0 0-.433.374.721.721 0 0 0-.048.57l2.854 8.77a1.256 1.256 0 0 1-.066.971 1.017 1.017 0 0 1-.307.383c-.132.1-.277.185-.435.253a1.313 1.313 0 0 1-.997-.07l-2.053-1.045a.8.8 0 0 0-.633-.053.8.8 0 0 0-.481.416.856.856 0 0 0-.06.648.8.8 0 0 0 .415.48l6.975 3.56a7.07 7.07 0 0 0 2.515.759 6.439 6.439 0 0 0 2.603-.293 5.085 5.085 0 0 0 1.812-1.02 5.303 5.303 0 0 0 1.79-3.516 5.257 5.257 0 0 0-.234-2.08l-1.393-4.28Z"/></svg>
